X: 33150
T: Princess Royal, The
R: reel
M: 4/4
K: Ddorian
AG|F2 D2 D2 AG|F2 D2 D4|B2 GGGA B2|A2 F2 F3 A|
G2 F2 E2 D2|C2 D2 A,2 AG|F2 ED E2 A,2|D2 D4 AA|
d2 A2 d2 A2|d2 A2 d2 B2|c3 d c2 A2|G2 F2 E4|
D2 DE F2 G2|A2 A2 d4|cA3 B4|AD3 G4|F2 E2 D2 D2|
A2 A,2 A,2 AG|FE D2 E2 F2|D4 D2||

